src/static/logos/coursera.svg

<?xml version="1.0" encoding="UTF-8" standalone="no"?>
<svg width="512px" height="72px" viewBox="0 0 512 72" version="1.1" xmlns="http://www.w3.org/2000/svg" xmlns:xlink="http://www.w3.org/1999/xlink" preserveAspectRatio="xMidYMid">
	<g fill="#717172">
		<path d="M257.328688,23.2337177 C257.640764,17.2333437 259.792199,12.3299648 263.15411,8.50466724 L263.15411,3.4074228 L258.685747,3.4074228 C249.654451,3.4074228 242.008584,6.86863146 237.563863,14.6894499 L237.303799,14.6894499 L237.303799,4.26799654 L214.139235,4.26799654 L214.139235,67.8227856 L237.308528,67.8227856 L237.308528,42.16634 C237.308528,31.2767723 240.495487,22.9736543 253.352081,22.9736543 C254.751695,22.9831111 256.06147,23.0634944 257.328688,23.2337177 L257.328688,23.2337177 Z"></path>
		<path d="M432.748606,23.0020248 C434.673076,17.3846534 437.793838,12.3819775 441.850828,8.36754286 L441.850828,3.40269437 L437.391922,3.40269437 C428.355897,3.40269437 420.719487,6.86390303 416.251124,14.6799931 L416.000517,14.6799931 L416.000517,4.26799654 L392.821767,4.26799654 L392.821767,67.8227856 L416.000517,67.8227856 L416.000517,42.16634 C416.000517,31.2767723 419.196934,22.9736543 432.053527,22.9736543 L432.748606,23.0020248 L432.748606,23.0020248 Z"></path>
		<path d="M304.381266,20.6188975 C300.806575,18.7606257 295.83227,17.5217778 291.874577,17.5217778 C289.217201,17.5217778 284.625898,18.6282297 284.625898,21.8577455 C284.625898,26.1984416 291.874577,26.8131371 295.08045,27.4467463 C305.880178,29.546168 314.0509,34.506288 314.0509,46.2611579 C314.0509,62.9808762 298.385621,69.9411209 283.221555,69.9411209 C273.920739,69.9411209 264.771232,67.3357576 256.865302,62.6262442 L265.267717,46.8805818 C269.972502,50.114826 277.868975,53.325428 283.599829,53.325428 C286.531454,53.325428 290.857965,51.9683694 290.857965,48.4977039 C290.857965,43.5423123 283.599829,43.2822488 276.332237,41.4287053 C269.083558,39.5704335 261.834879,36.1092248 261.834879,24.708987 C261.834879,9.09572063 276.332237,2.16857489 290.621543,2.16857489 C298.007347,2.16857489 305.397878,3.27975527 312.131158,6.25393593 L304.381266,20.6188975 L304.381266,20.6188975 Z"></path>
		<path d="M511.335065,67.8227856 L488.165772,67.8227856 L488.165772,60.753787 L487.910437,60.753787 C483.834533,67.0709657 475.796207,69.9174788 468.169254,69.9174788 C448.801616,69.9174788 435.188474,54.1812733 435.188474,35.967372 C435.188474,17.7723844 448.560466,2.15438961 467.90919,2.15438961 C475.417932,2.15438961 483.323863,4.87796364 488.161044,10.4480508 L488.161044,4.26799654 L511.325608,4.26799654 L511.335065,67.8227856 L511.335065,67.8227856 Z M459.128501,36.1044964 C459.128501,44.1522794 464.613476,50.3465189 474.023046,50.3465189 C483.442073,50.3465189 488.903407,44.1617362 488.903407,36.1044964 C488.903407,28.2978632 483.442073,21.7348063 474.023046,21.7348063 C464.613476,21.7395348 459.128501,28.2978632 459.128501,36.1044964 L459.128501,36.1044964 Z"></path>
		<path d="M389.166693,39.830497 L340.383511,39.830497 C340.383511,48.9894603 345.362544,53.9401235 354.909239,53.9401235 C359.874087,53.9401235 363.434593,52.3371867 365.987943,48.1194297 L388.277749,48.1194297 C384.584847,63.1132722 369.93618,69.9269356 355.041635,69.9269356 C333.409081,69.9269356 317.23786,58.0254846 317.23786,36.1092248 C317.23786,14.9258713 332.11822,2.16857489 353.381957,2.16857489 C376.045308,2.16857489 389.17615,15.8006303 389.17615,37.4710118 L389.166693,39.830497 L389.166693,39.830497 Z M367.642893,26.8131371 C366.493885,20.7418367 360.763031,16.7794147 354.530965,16.7794147 C347.774042,16.7794147 342.194498,20.2358949 340.771242,26.8131371 L367.642893,26.8131371 L367.642893,26.8131371 Z"></path>
		<path d="M140.441969,34.9980444 C140.418327,34.4495469 140.3805,33.9152346 140.337944,33.3714655 L140.337944,33.3620087 L140.337944,33.3525518 C139.817817,27.4562032 137.869705,21.9381287 134.564534,16.9543665 C133.089265,14.7320058 131.401217,12.7129674 129.514574,10.9019798 C126.757901,8.24933218 123.566213,6.05534199 119.96788,4.32000924 C114.553831,1.7335596 108.572371,0.428513709 102.188994,0.428513709 C101.564842,0.428513709 100.912319,0.437970563 100.255067,0.461612698 C95.7725183,0.664935065 91.4365506,1.51605195 87.3606465,3.01496335 C83.2516433,4.49968947 79.672224,6.46198672 76.7453276,8.81674343 C76.1495457,9.28958615 75.5017512,9.87118268 74.8066724,10.5095203 L74.3054592,11.0012768 L73.6198372,11.7294545 L73.6245657,11.7294545 L73.6292941,11.7294545 L73.307761,12.0462592 L73.1517229,12.2164825 L72.3337051,13.0770563 C71.7284664,13.7579498 71.1515983,14.4388433 70.6125576,15.1055515 L70.6078291,15.0960947 L70.5889154,15.077181 C69.4682782,16.438968 68.4327527,17.8480392 67.6714759,19.1152577 C67.1560773,19.9285472 66.6501356,20.7654788 66.1678361,21.6024104 L59.4865685,35.1115267 L59.4960254,35.1209835 L59.1461218,35.8066055 L58.4084872,37.3007885 C56.9426747,40.2655123 55.3728369,43.2207792 53.6185905,45.6606476 C49.7081812,49.949331 45.2871019,52.0487527 39.6035325,52.0487527 C39.2063446,52.0487527 38.7996999,52.029839 38.3835983,52.0061968 C34.960217,51.8690724 32.0238638,51.0605114 29.4185004,49.5190442 C29.1395232,49.3535492 28.8700029,49.1833258 28.6099394,49.008374 C26.4821472,47.5945743 24.8508398,45.7788583 23.6309056,43.5139417 C22.2549333,40.9464058 21.6449662,38.3221287 21.7300779,35.5418136 C21.7348063,35.4661587 21.7395348,35.3999608 21.7395348,35.3384912 C21.9239434,30.9126834 23.6119919,27.4703885 27.011731,24.4962078 C27.8392058,23.7822153 28.7045079,23.1769766 29.6076375,22.6379359 C29.7353051,22.5622811 29.8629726,22.4913547 29.9906401,22.4251567 C32.5156202,21.0491844 35.3905039,20.3635625 38.6862176,20.3635625 L39.7122863,20.391933 C44.9466551,20.590527 48.9847319,22.2265628 52.2047908,25.4182511 L62.3047111,7.28473304 C59.8884848,5.66761097 57.1601824,4.27745339 54.1529027,3.14735931 C54.0394205,3.10480346 53.9212098,3.05751919 53.8029991,3.01969177 C53.4436387,2.89202424 53.0890066,2.75962828 52.7201893,2.6414176 C49.5237726,1.57279307 46.1713177,0.915541703 42.7195659,0.617650794 L42.7195659,0.617650794 C42.6344543,0.603465512 42.5398857,0.594008658 42.454774,0.584551804 C41.9251902,0.551452814 41.3861495,0.485254834 40.8565657,0.461612698 C40.2796975,0.437970563 39.698101,0.428513709 39.1306898,0.423785281 L38.8044283,0.423785281 C32.4541506,0.447427417 26.5530736,1.74774488 21.1579382,4.32473766 C15.1150084,7.23744877 10.2163579,11.4788479 6.58492583,16.9449097 C2.96295065,22.4109714 0.98646811,28.4775434 0.702762482,34.9885876 C0.679120346,35.546542 0.664935065,36.099768 0.664935065,36.6435371 C0.660206638,45.7504877 3.97956248,53.7604433 10.5804468,60.4842667 C17.4697651,67.5390799 26.4301345,71.3407354 37.1873062,71.7899359 C37.8776566,71.8183065 38.5585501,71.8372202 39.2394436,71.8372202 C45.3249293,71.8372202 50.956486,70.7544104 56.0064462,68.5887908 C57.2689362,68.0497501 58.4935988,67.4161408 59.746632,66.7116052 C60.4275255,66.3191457 61.0705916,65.9030442 61.7089293,65.458572 L62.181772,65.1417674 L62.9761478,64.5979983 C63.93129,63.9123763 64.8249628,63.1700133 65.6949934,62.3803659 L65.9976127,62.0919319 C66.5082828,61.6049039 67.018953,61.1131475 67.5012525,60.6072058 L69.3122401,58.5597968 L70.0025905,57.6944947 L70.3241235,57.2216519 L70.6456566,56.7582661 C73.3361316,52.2378898 82.0931786,35.7876918 82.0931786,35.7876918 L82.0931786,35.7545928 L82.6133056,34.7521662 L83.0483209,33.9672473 C84.3391815,31.617219 85.2706817,29.9480843 86.5048012,28.1938378 L86.5379001,28.1418251 C89.4175123,23.966624 94.3681755,20.9924433 100.203055,20.49123 C109.990899,19.64957 118.568266,26.0802309 119.357913,34.8561916 C120.142832,43.6321524 112.84214,51.4293287 103.054296,52.2757172 C101.016344,52.450669 99.035133,52.3135446 97.1674043,51.9021714 L97.1201201,51.9210851 C89.9376392,50.4269022 85.3652502,45.1878049 83.1097905,42.8472335 L73.6907636,60.167462 C73.6907636,60.167462 76.61766,63.1180006 78.6225131,64.5932698 C80.6320947,66.0638107 83.2280012,67.5107094 85.2990522,68.4091105 C90.3253703,70.5558165 95.791432,71.8419486 101.829633,71.8419486 C102.529441,71.8419486 102.387588,71.8419486 103.115766,71.8135781 C113.863481,71.3643775 123.443274,67.2459175 130.351506,60.1911042 C136.895649,53.4909229 140.446698,45.8403278 140.479797,36.7853899 L140.479797,36.5158696 C140.475068,36.0146563 140.460883,35.5087146 140.441969,34.9980444 L140.441969,34.9980444 Z"></path>
		<path d="M176.472584,69.9694915 C171.588119,69.9694915 167.157583,69.4020802 163.180975,68.2672577 C159.204368,67.1324352 155.809358,65.3403613 152.995943,62.8815792 C150.173072,60.4227971 147.997996,57.2925784 146.465986,53.4956514 C144.933975,49.6987244 144.16797,45.1216069 144.16797,39.7879411 L144.16797,4.25381126 L166.519245,4.25381126 L166.519245,39.5042355 C166.519245,43.4997564 167.474387,46.3935538 169.379943,48.199813 C171.290228,50.0108006 173.715911,50.9139302 176.656993,50.9139302 C179.664272,50.9139302 182.104141,50.0722701 183.986055,48.3842216 C185.858512,46.6961732 186.804197,43.8969443 186.804197,39.9628929 L186.804197,4.25381126 L209.155472,4.25381126 L209.155472,39.3198268 C209.155472,44.8426297 208.370554,49.5379579 206.805444,53.4010828 C205.240335,57.2689362 203.032159,60.4275255 200.190375,62.8863076 C197.334405,65.3450898 193.896838,67.1324352 189.854033,68.2719861 C185.811228,69.4020802 181.352321,69.9694915 176.472584,69.9694915 L176.472584,69.9694915 Z"></path>
	</g>
</svg>

<svg width="512" height="72" xmlns="http://www.w3.org/2000/svg" preserveAspectRatio="xMidYMid"><path d="M257.329 23.234c.312-6 2.463-10.904 5.825-14.73V3.408h-4.468c-9.032 0-16.677 3.462-21.122 11.282h-.26V4.268h-23.165v63.555h23.17V42.166c0-10.89 3.186-19.192 16.043-19.192 1.4.01 2.71.09 3.977.26zm175.42-.232c1.924-5.617 5.045-10.62 9.102-14.634V3.403h-4.46c-9.035 0-16.672 3.46-21.14 11.277h-.25V4.268h-23.18v63.555h23.18V42.166c0-10.89 3.196-19.192 16.053-19.192l.695.028zm-128.368-2.383c-3.574-1.858-8.549-3.097-12.506-3.097-2.658 0-7.25 1.106-7.25 4.336 0 4.34 7.25 4.955 10.455 5.589 10.8 2.1 18.97 7.06 18.97 18.814 0 16.72-15.664 23.68-30.828 23.68-9.301 0-18.45-2.605-26.357-7.315l8.403-15.745c4.705 3.234 12.601 6.444 18.332 6.444 2.931 0 7.258-1.357 7.258-4.827 0-4.956-7.258-5.216-14.526-7.07-7.248-1.858-14.497-5.319-14.497-16.719 0-15.613 14.497-22.54 28.787-22.54 7.385 0 14.776 1.11 21.51 4.085l-7.75 14.365zm206.954 47.204h-23.17v-7.07h-.255c-4.075 6.318-12.114 9.164-19.74 9.164-19.368 0-32.982-15.736-32.982-33.95 0-18.195 13.372-33.813 32.721-33.813 7.509 0 15.415 2.724 20.252 8.294v-6.18h23.165l.01 63.555zM459.13 36.104c0 8.048 5.484 14.243 14.894 14.243 9.42 0 14.88-6.185 14.88-14.243 0-7.806-5.46-14.37-14.88-14.37-9.41.006-14.894 6.564-14.894 14.37zm-69.963 3.726h-48.783c0 9.16 4.979 14.11 14.525 14.11 4.965 0 8.526-1.603 11.079-5.82h22.29c-3.693 14.993-18.342 21.807-33.236 21.807-21.633 0-37.804-11.902-37.804-33.818 0-21.183 14.88-33.94 36.144-33.94 22.663 0 35.794 13.632 35.794 35.302l-.01 2.36zm-21.524-13.017c-1.15-6.071-6.88-10.034-13.112-10.034-6.757 0-12.337 3.457-13.76 10.034h26.872zm-227.201 8.185a46.18 46.18 0 00-.104-1.627v-.019c-.52-5.896-2.468-11.414-5.773-16.398a35.853 35.853 0 00-5.05-6.052c-2.757-2.653-5.949-4.847-9.547-6.582-5.414-2.586-11.396-3.891-17.779-3.891-.624 0-1.277.009-1.934.033-4.482.203-8.818 1.054-12.894 2.553-4.11 1.485-7.689 3.447-10.616 5.802a37.174 37.174 0 00-1.938 1.693l-.502.491-.685.728h.009l-.321.317-.156.17-.818.861a57.116 57.116 0 00-1.721 2.029l-.005-.01-.02-.019c-1.12 1.362-2.155 2.771-2.917 4.038a69.432 69.432 0 00-1.503 2.487l-6.681 13.51.009.009-.35.686-.738 1.494c-1.465 2.965-3.035 5.92-4.79 8.36-3.91 4.288-8.33 6.388-14.014 6.388-.398 0-.804-.02-1.22-.043-3.424-.137-6.36-.945-8.965-2.487a16.85 16.85 0 01-.81-.51c-2.127-1.414-3.758-3.23-4.978-5.495-1.376-2.568-1.986-5.192-1.9-7.972.004-.076.009-.142.009-.204.184-4.425 1.872-7.868 5.272-10.842a18.27 18.27 0 012.596-1.858 6.94 6.94 0 01.383-.213c2.525-1.376 5.4-2.061 8.695-2.061l1.026.028c5.235.199 9.273 1.835 12.493 5.026l10.1-18.133c-2.417-1.617-5.145-3.008-8.152-4.138-.114-.042-.232-.09-.35-.127-.36-.128-.714-.26-1.083-.379-3.196-1.068-6.549-1.725-10-2.023-.086-.015-.18-.024-.265-.033-.53-.034-1.069-.1-1.598-.123A53.118 53.118 0 0039.13.424h-.327c-6.35.023-12.25 1.324-17.646 3.9-6.043 2.913-10.942 7.155-14.573 12.62C2.963 22.412.986 28.479.703 34.99a39.186 39.186 0 00-.038 1.655C.66 45.75 3.98 53.76 10.58 60.484c6.89 7.055 15.85 10.857 26.607 11.306.69.028 1.372.047 2.052.047 6.086 0 11.717-1.083 16.767-3.248 1.263-.54 2.488-1.173 3.74-1.877a27.13 27.13 0 001.963-1.253l.473-.317.794-.544a30.554 30.554 0 002.719-2.218l.303-.288a44.58 44.58 0 001.503-1.485l1.811-2.047.69-.866.322-.472.322-.464c2.69-4.52 11.447-20.97 11.447-20.97v-.033l.52-1.003.435-.785c1.291-2.35 2.223-4.019 3.457-5.773l.033-.052c2.88-4.175 7.83-7.15 13.665-7.65 9.788-.842 18.365 5.588 19.155 14.364.785 8.776-6.516 16.573-16.304 17.42a19.548 19.548 0 01-5.887-.374l-.047.02c-7.182-1.495-11.755-6.734-14.01-9.075l-9.42 17.32s2.928 2.951 4.933 4.426c2.01 1.47 4.605 2.918 6.676 3.816 5.026 2.147 10.492 3.433 16.53 3.433.7 0 .559 0 1.287-.028 10.747-.45 20.327-4.568 27.236-11.623 6.544-6.7 10.095-14.35 10.128-23.406v-.27a55.104 55.104 0 00-.038-1.517zm36.031 34.972c-4.885 0-9.315-.568-13.292-1.703-3.977-1.135-7.372-2.927-10.185-5.385-2.823-2.46-4.998-5.59-6.53-9.386-1.532-3.797-2.298-8.374-2.298-13.708V4.254h22.351v35.25c0 3.996.955 6.89 2.86 8.696 1.911 1.81 4.337 2.714 7.278 2.714 3.007 0 5.447-.842 7.33-2.53 1.872-1.688 2.817-4.487 2.817-8.421V4.253h22.351V39.32c0 5.523-.784 10.218-2.35 14.081-1.565 3.868-3.773 7.027-6.615 9.485-2.856 2.46-6.293 4.246-10.336 5.386-4.043 1.13-8.502 1.697-13.381 1.697z" fill="#717172"/></svg>
